X: 1
T: Joe Madden's
M: 4/4
L: 1/8
R: reel
K: Gmaj
|:GE|DEGA ~B3d|e g~g2 ed(3Bcd|edBd ~g3d|egdB ABGE|
DEGA ~B3d|eg~g2 ed(3Bcd|egdB ABGE|DEGA BG:|
|:G2|dg~g2 a2ge|dg~g2 edBd|~e3d ~g3d|egdB ABGE|
[1d~g3 e~a3|eg~g2 ed(3Bcd|egdB ABGE|DEGA BG:|
[2DEGA ~B3d|eg~g2 ed(3Bcd|egdB ABGE|DEGA BG|
